X: 153
T: South Australia
M:4/4
R:march
L:1/8
Z:Alf Warnock - alf0@rogers.com
K:A
E2|"A"C2E2 E2E2|"D"F2E2 "A"E4| "D"F2E2 "A"E4| "D"F2E2 "A"E3(3D|
"A"C2E2 E2C2|"F#m"B,2C2 A,3B,|"A"C2E2 E2C2|"E7"B,4 "A"A,4|
"D"A3A A2F2|"D"F2E2 "A"E4| "D"F2E2 "A"E4| "D"F2E2 "A"E4|
"D"A3A A2F2|"F#m"F2E2 A,3B,|"A"C2E2 E2C2|"E7"B,4 "A"A,4|

